X: 23011
T: Last Inn, The
R: reel
M: 4/4
K: Eminor
EBBc ecA|F2DF GAB|EBBc A2B|AFFA B2G|EBBc ecA|F2DF GAB|EBBc A2B|A
FFA B2A||B2e fgag|
f2e fBBA|B2e fgaf|ecA GABc|B2e fgag|f2e fBBA|B2e fgaf|ecA BAGF||G2Bd gfe
B2d2 cBA|=F2D2 FGA|G2E2 GAB|G2Bd gfe|B2d2 cBA|=F2D2 FGA|d2A G2F2||

